X:1
T:Title
%%score { ( 1 4 ) | ( 2 3 ) }
L:1/8
Q:1/4=150
M:2/2
K:Eb
V:1 treble nm="Grand Piano"
V:4 treble 
V:2 bass 
V:3 bass 
V:1
 G4 G4 | G2 F2 G2 A2 | [GB]4 [Ac]2 [GB]2 | [EG]8 | [DF]4 [DF]4 | [DF]2 [_D=E]2 [=DF]2 [_EG]2 | %6
w: A.~F.~Barnard *||||||
 [FA]4 [GB]2 A2 | G8 | G4 G4 | G2 F2 G2 A2 | [EGB]4 [Ac]2 B2 | G8 | [DF]4 [DF]4 | %13
w: |||||||
 [DF]2 [_D=E]2 [=DF]2 [_EG]2 | [FA]4 [EG]2 [DF]2 | [G,E]8 | [DF]4 [DF]4 | %17
w: ||||
 [DF]2 [_D=E]2 [=DF]2 [_EG]2 | [FA]4 [Ac]2 B2 | G8 | F4 F4 | B2 =A2 B2 c2 | d4 c4 | [DB]8 | G4 G4 | %25
w: ||||||||
 G2 F2 G2 A2 | [GB]4 [GB]4 | [Ac]8 | [Ae]4 .[EAd]4 | [EGB]4 [B,EG]4 | [B,DA]4 D2- [DF]2 | E8 |] %32
w: |||||||
V:2
 [E,B,E]4 [E,B,E]4 | E2 D2 E2 F2 | [E,E]4 [E,E]4 | [E,B,]8 | [B,,B,]4 [B,,B,]4 | %5
 [B,,B,]4 [B,,B,]4 | [B,,B,]4 z2 F2 | [E,B,E]8 | [E,B,E]4 [E,B,E]4 | E2 D2 E2 F2 | E,4 z2 G2 | %11
 [E,B,E]8 | [B,,B,]4 [B,,B,]4 | [B,,B,]4 [B,,B,]4 | [B,,B,]4 B,2 A,2 | E,8 | [B,,B,]4 [B,,B,]4 | %17
 [B,,B,]4 [B,,B,]4 | [B,,B,]4 z2 G2 | [E,B,E]8 | [F,B,D]4 [F,B,D]4 | [G,B,E]4 E2 =E2 | %22
 [F,B,F]4 [F,=A,E]4 | B,4 z4 | [E,B,E]4 [E,B,E]4 | E2 D2 E2 F2 | [E,E]4 [E,E]4 | [A,E]8 | %28
 [A,C]4 z2[K:treble] c2 | B,,4 B,,4 | B,,4 z2 A,2 | [E,G,]8 |] %32
V:3
 x8 | [E,B,]4 [E,B,]4 | x8 | x8 | x8 | x8 | z4 [B,,B,]4 | x8 | x8 | [E,B,]4 [E,B,]4 | z4 E,4 | x8 | %12
 x8 | x8 | z4 B,,4 | x8 | x8 | x8 | z4 [B,,B,]4 | x8 | x8 | z4 [G,B,]4 | x8 | B,,8 | x8 | %25
 [E,B,]4 [E,B,]4 | x8 | x8 | z4 A,,4[K:treble] | x8 | z4 B,,4 | x8 |] %32
V:4
 x8 | x8 | x8 | x8 | x8 | x8 | x8 | x8 | x8 | x8 | z4 E4 | x8 | x8 | x8 | x8 | x8 | x8 | x8 | x8 | %19
 x8 | x8 | x8 | x8 | z4 A,4 | x8 | x8 | x8 | x8 | x8 | x8 | z4 .[B,G]4 | x8 |] %32

